docs/inc/icons/package.svg

<svg height="16" viewBox="0 0 16 16" width="16" xmlns="http://www.w3.org/2000/svg"><path d="m1 4.27v7.47c0 .45.3.84.75.97l6.5 1.73c.16.05.34.05.5 0l6.5-1.73c.45-.13.75-.52.75-.97v-7.47c0-.45-.3-.84-.75-.97l-6.5-1.74a1.4 1.4 0 0 0 -.5 0l-6.5 1.74c-.45.13-.75.52-.75.97zm7 9.09-6-1.59v-6.77l6 1.61zm-6-9.36 2.5-.67 6.5 1.73-2.5.67zm13 7.77-6 1.59v-6.75l2-.55v2.44l2-.53v-2.44l2-.53zm-2-7.24-6.5-1.73 2-.53 6.5 1.73z" fill-rule="evenodd"/></svg>

<svg xmlns="http://www.w3.org/2000/svg" width="16" height="16" viewBox="0 0 16 16"><path fill-rule="evenodd" d="M1 4.27v7.47c0 .45.3.84.75.97l6.5 1.73c.16.05.34.05.5 0l6.5-1.73c.45-.13.75-.52.75-.97V4.27c0-.45-.3-.84-.75-.97l-6.5-1.74a1.4 1.4 0 0 0-.5 0L1.75 3.3c-.45.13-.75.52-.75.97zm7 9.09l-6-1.59V5l6 1.61v6.75zM2 4l2.5-.67L11 5.06l-2.5.67L2 4zm13 7.77l-6 1.59V6.61l2-.55V8.5l2-.53V5.53L15 5v6.77zm-2-7.24L6.5 2.8l2-.53L15 4l-2 .53z"/></svg>
